X: 522
M: C|
L: 1/8
K: D
|: cd |\
e2c2 A2cd | efed c2A2 | a2f2 d2fg | abag f2ed |\
cdef gB cd | efed c2A2 | af df e2c2 | d6 :|

